!!!OTL: O sine labe intensa
**kern
*staff1
=1-
*clefF4
*k[]
*met(c|)
*M2/2
0F
=2
1F
2F\
2C/
=3
1E-
1F
=4
1C
1C
=5
1FF
1r
=6
2r
2FF/
1C
=7
1FF
1r
=8
1F
0G
0F
0F
!!linebreak:original
=9
1G
1F
1G
=10
1F
1.C
1E
2F\
=11
1C
2.F\
4G\
=12
2A\
2B\
2A\
1B
4A\
4G\
0F
==
*-
!!title: @{OTL}, @{GTL}, ed. @{ENC}
!!!pag:
!!!GTL: Hymnbook D
!!!EFL: 
!!!YEM: Creative Commons CC/BY/NC/SA 4.0
!!!ENC: Marcin Konik
!!!END: 2015-0m-dd
!!!EED: Marcin Konik
!!!EEV: 
!!!ONB: Encoded in vim by Marcin Konik
!!!CharacterEncoding: utf-8
!!!RDF**kern: l=long note in original notation
!!!RDF**kern: i=editorial accidental
!!muse2ps: z14jc180F
!!!COM: Anonim
!!!CDT: [?]
!!!TXO: Polish
!!!ODT: 
!!!GTL: Hymnbook D
!!!ARL: Opactwo św. Wojciecha, Staniątki 
!!!voices:	1
